icons/chat-settings-fill.svg

<svg xmlns="http://www.w3.org/2000/svg" width="24" height="24" fill="none"><g clip-path="url(#a)"><g><path fill="#121212" d="M6.455 19L2 22.5V4C2 3.73478 2.10536 3.48043 2.29289 3.29289C2.48043 3.10536 2.73478 3 3 3H21C21.2652 3 21.5196 3.10536 21.7071 3.29289C21.8946 3.48043 22 3.73478 22 4V18C22 18.2652 21.8946 18.5196 21.7071 18.7071C21.5196 18.8946 21.2652 19 21 19H6.455ZM8.145 12.071L7.17 12.634L8.17 14.366L9.146 13.803C9.647 14.313 10.286 14.69 11 14.874V16H13V14.874C13.7039 14.6923 14.3449 14.322 14.854 13.803L15.83 14.366L16.83 12.634L15.855 12.071C16.0495 11.3702 16.0495 10.6298 15.855 9.929L16.83 9.366L15.83 7.634L14.854 8.197C14.3449 7.678 13.7039 7.3077 13 7.126V6H11V7.126C10.2961 7.3077 9.65507 7.678 9.146 8.197L8.17 7.634L7.17 9.366L8.145 9.929C7.95047 10.6298 7.95047 11.3702 8.145 12.071ZM12 13C11.4696 13 10.9609 12.7893 10.5858 12.4142C10.2107 12.0391 10 11.5304 10 11C10 10.4696 10.2107 9.96086 10.5858 9.58579C10.9609 9.21071 11.4696 9 12 9C12.5304 9 13.0391 9.21071 13.4142 9.58579C13.7893 9.96086 14 10.4696 14 11C14 11.5304 13.7893 12.0391 13.4142 12.4142C13.0391 12.7893 12.5304 13 12 13Z"/></g></g><defs><clipPath id="a"><rect width="24" height="24" fill="white"/></clipPath></defs></svg>

<svg width="24" height="24" fill="none" xmlns="http://www.w3.org/2000/svg"><g clip-path="url(#a)"><path d="M6.455 19 2 22.5V4a1 1 0 0 1 1-1h18a1 1 0 0 1 1 1v14a1 1 0 0 1-1 1H6.455Zm1.69-6.929-.975.563 1 1.732.976-.563c.501.51 1.14.887 1.854 1.071V16h2v-1.126a3.996 3.996 0 0 0 1.854-1.071l.976.563 1-1.732-.975-.563c.194-.7.194-1.441 0-2.142l.975-.563-1-1.732-.976.563A3.996 3.996 0 0 0 13 7.126V6h-2v1.126a3.996 3.996 0 0 0-1.854 1.071l-.976-.563-1 1.732.975.563a4.004 4.004 0 0 0 0 2.142ZM12 13a2 2 0 1 1 0-4 2 2 0 0 1 0 4Z" /></g><defs><clipPath id="a"><path fill="#fff" d="M0 0h24v24H0z"/></clipPath></defs></svg>
